picto/press-out-glass-framed.svg

<svg class="color-immutable" width="30" height="30" viewBox="0 0 30 30" fill="none" xmlns="http://www.w3.org/2000/svg"><path d="M30 0H0V30H30V0Z" fill="#237F52"/><path d="M25.5 3C26.325 3 27 3.675 27 4.5V25.5C27 26.325 26.325 27 25.5 27H4.5C3.675 27 3 26.325 3 25.5V4.5C3 3.675 3.675 3 4.5 3H25.5ZM25.5 2.625H4.5C3.46613 2.625 2.625 3.46613 2.625 4.5V25.5C2.625 26.5339 3.46613 27.375 4.5 27.375H25.5C26.5339 27.375 27.375 26.5339 27.375 25.5V4.5C27.375 3.46613 26.5339 2.625 25.5 2.625Z" fill="white"/><path d="M13.7315 17.7602L13.0984 16.0344L14.0351 14.8264L14.2067 13.498L14.5621 13.5439L14.378 14.9691L13.5032 16.0972L14.068 17.6368L13.7315 17.7602Z" fill="white"/><path d="M10.8406 12.6789H8.58105V12.3206H10.7552L12.0663 11.6573L13.5065 12.0399L13.4145 12.3863L12.1063 12.0387L10.8406 12.6789Z" fill="white"/><path d="M17.0932 13.5425L16.2969 12.6789H15.572V12.3206H16.4539L17.3566 13.2995L17.0932 13.5425Z" fill="white"/><path d="M10.5069 13.6871L10.3728 13.3547L11.9381 12.7237L12.6843 13.0226L13.4407 12.6727L13.5911 12.9979L12.6944 13.4127L11.9385 13.1098L10.5069 13.6871Z" fill="white"/><path d="M19.4118 14.0814C19.3311 14.0047 19.2246 13.9622 19.1149 13.9622C19.1117 13.9622 19.1086 13.9623 19.1054 13.9624C18.9913 13.9653 18.8835 14.0134 18.8049 14.096L18.6737 14.2332L19.9759 15.4749L19.8336 15.6241L18.2388 14.1034C18.1593 14.0266 18.0522 13.9846 17.9415 13.9846C17.9385 13.9846 17.9356 13.9846 17.9327 13.9847C17.8185 13.9873 17.7113 14.0353 17.6328 14.1178L17.5014 14.2555L19.4065 16.0724L19.2643 16.2211L17.0665 14.1256C16.9863 14.049 16.8807 14.0069 16.77 14.0069C16.7667 14.0069 16.7635 14.007 16.7603 14.0071C16.6473 14.0097 16.5385 14.0572 16.461 14.14L16.3286 14.278L18.8369 16.6695L18.6945 16.8185L15.847 14.1028C15.7641 14.0241 15.654 13.9807 15.5406 13.9807C15.5367 13.9807 15.5329 13.9807 15.529 13.9808C15.2829 13.9864 15.0888 14.1904 15.0946 14.4363C15.0972 14.5537 15.1467 14.6663 15.2325 14.7474L17.937 17.3274C18.0287 17.414 18.0821 17.5338 18.085 17.6602L18.103 18.4151C18.1076 18.5989 17.9616 18.7521 17.7776 18.7561L16.4245 18.7888C16.1216 18.7959 15.8563 18.9925 15.7623 19.2804C15.7506 19.3185 15.7442 19.3589 15.7455 19.3999C15.7495 19.5938 15.9087 19.7484 16.1017 19.7484C16.1046 19.7484 16.1077 19.7484 16.1106 19.7482L20.0571 19.6504L20.8037 19.6321L23.9998 21.5303V18.1126L22.266 17.0908L19.4118 14.0814Z" fill="white"/><path d="M6.60807 22.447H7.38972L8.73102 20.8231L9.45057 20.6229L13.254 19.5661C13.4438 19.5133 13.5554 19.3158 13.5018 19.1264C13.4911 19.0868 13.4732 19.05 13.4507 19.0169C13.3149 18.8232 13.0953 18.7133 12.8666 18.7133C12.8025 18.7133 12.7378 18.7218 12.674 18.7397L11.3702 19.103C11.3402 19.1115 11.3099 19.1154 11.2801 19.1154C11.1343 19.1154 11.0003 19.0187 10.9594 18.8717L10.7566 18.1443C10.7226 18.0225 10.7388 17.8924 10.8012 17.7828L12.6361 14.5265C12.6945 14.4239 12.7092 14.3017 12.6773 14.1886C12.6224 13.9919 12.4439 13.8629 12.2492 13.8629C12.2094 13.8629 12.1691 13.8683 12.129 13.8796C12.0157 13.9109 11.9187 13.9862 11.8604 14.0891L9.92825 17.5169L9.74862 17.4158L11.4507 14.397L11.284 14.3036C11.2197 14.2667 11.147 14.248 11.0739 14.248C11.0352 14.248 10.9965 14.2532 10.9588 14.2637C10.8487 14.2946 10.7565 14.3669 10.7006 14.4664L9.20907 17.1116L9.02975 17.0107L10.3224 14.7173L10.1566 14.624C10.0916 14.5872 10.0191 14.5683 9.94587 14.5683C9.9074 14.5683 9.86877 14.5735 9.8309 14.5841C9.7214 14.615 9.6278 14.6876 9.57267 14.7868L8.49057 16.7063L8.31095 16.6051L9.1946 15.0377L9.02922 14.9447C8.96382 14.9078 8.89092 14.8889 8.81735 14.8889C8.77902 14.8889 8.7404 14.894 8.70267 14.9045C8.59385 14.9351 8.5007 15.008 8.4443 15.1077L6.35742 18.8426V22.1963C6.3575 22.3346 6.46992 22.447 6.60807 22.447Z" fill="white"/><path d="M6.35752 18.403V11.3968H21.3362C21.5852 11.3968 21.8337 11.6036 21.8788 11.8485L22.8653 17.1947L23.2732 17.4353L22.2305 11.7836C22.1549 11.3732 21.7537 11.0392 21.3362 11.0392H6.35752V9.6081C6.35752 9.47228 6.47228 9.35752 6.6081 9.35752H23.3918C23.53 9.35752 23.6424 9.46995 23.6424 9.6081V17.6527L23.9999 17.8634V9.6081C23.9999 9.27368 23.7263 9 23.3918 9H6.6081C6.27368 9 6 9.27368 6 9.6081V19.0429L6.1212 18.8258L6.35752 18.403Z" fill="white"/><path d="M23.6423 21.5674V22.1964C23.6423 22.3346 23.5299 22.447 23.3917 22.447H7.66783L7.37256 22.8045H23.3917C23.7262 22.8045 23.9998 22.5309 23.9998 22.1964V21.7798L23.8903 21.7147L23.6423 21.5674Z" fill="white"/><path d="M13.5019 19.1264C13.4911 19.0868 13.4732 19.05 13.4507 19.0169C13.315 18.8232 13.0954 18.7133 12.8666 18.7133C12.8026 18.7133 12.7378 18.7218 12.674 18.7397L11.3702 19.103C11.3402 19.1115 11.3099 19.1154 11.2801 19.1154C11.1343 19.1154 11.0003 19.0187 10.9595 18.8717L10.7566 18.1443C10.7226 18.0225 10.7388 17.8924 10.8012 17.7828L12.6361 14.5265C12.6945 14.4239 12.7092 14.3017 12.6773 14.1886C12.6224 13.9919 12.4439 13.8629 12.2492 13.8629C12.2095 13.8629 12.1691 13.8683 12.129 13.8796C12.0157 13.9109 11.9187 13.9862 11.8604 14.0891L9.92827 17.5169L9.74865 17.4158L11.4508 14.397L11.284 14.3036C11.2197 14.2667 11.147 14.248 11.0739 14.248C11.0353 14.248 10.9965 14.2532 10.9588 14.2637C10.8487 14.2946 10.7565 14.3669 10.7006 14.4664L9.2091 17.1116L9.02978 17.0107L10.3224 14.7173L10.1566 14.624C10.0916 14.5872 10.0192 14.5683 9.9459 14.5683C9.90742 14.5683 9.8688 14.5735 9.83092 14.5841C9.72142 14.615 9.62783 14.6876 9.5727 14.7868L8.4906 16.7063L8.31098 16.6051L9.19462 15.0377L9.02925 14.9447C8.96385 14.9078 8.89095 14.8889 8.81737 14.8889C8.77905 14.8889 8.74043 14.894 8.7027 14.9045C8.59388 14.9351 8.50073 15.008 8.44433 15.1077L6.35745 18.8426L6.30847 18.9304L6 19.4828V20.255V21.3991V22.1964C6 22.5309 6.27368 22.8045 6.6081 22.8045H6.74865H6.86482H7.0944L7.38975 22.447L8.73105 20.8231L9.4506 20.6229L13.254 19.5661C13.4437 19.5134 13.5553 19.3158 13.5019 19.1264Z" fill="white"/><path d="M15.1329 12.4997C15.1329 12.1592 14.8567 11.8829 14.5165 11.8829C14.1757 11.8829 13.8997 12.1592 13.8997 12.4997C13.8997 12.8405 14.1757 13.1165 14.5165 13.1165C14.8566 13.1164 15.1329 12.8404 15.1329 12.4997Z" fill="#EB0000"/></svg>

<svg class="color-immutable" width="30" height="30" viewBox="0 0 30 30" fill="none" xmlns="http://www.w3.org/2000/svg"><g clip-path="url(#a)"><path d="M30 0H0v30h30V0Z" fill="#237F52"/><path d="M25.5 3c.825 0 1.5.675 1.5 1.5v21c0 .825-.675 1.5-1.5 1.5h-21c-.825 0-1.5-.675-1.5-1.5v-21C3 3.675 3.675 3 4.5 3h21Zm0-.375h-21A1.877 1.877 0 0 0 2.625 4.5v21c0 1.034.841 1.875 1.875 1.875h21a1.877 1.877 0 0 0 1.875-1.875v-21A1.877 1.877 0 0 0 25.5 2.625Z" fill="#fff"/><path d="m13.732 17.76-.634-1.726.937-1.208.172-1.328.355.046-.184 1.425-.875 1.128.565 1.54-.336.123ZM10.84 12.679H8.582v-.358h2.174l1.311-.664 1.44.383-.091.346-1.309-.347-1.265.64ZM17.093 13.543l-.796-.864h-.725v-.358h.882l.903.979-.264.242ZM10.507 13.687l-.134-.332 1.565-.631.746.299.757-.35.15.325-.897.415-.756-.303-1.431.577ZM19.412 14.081a.432.432 0 0 0-.297-.119h-.01a.43.43 0 0 0-.3.134l-.131.137 1.302 1.242-.142.15-1.595-1.522a.428.428 0 0 0-.297-.118h-.01a.426.426 0 0 0-.3.133l-.13.137 1.905 1.817-.143.15-2.197-2.096a.428.428 0 0 0-.297-.12l-.01.001a.424.424 0 0 0-.299.133l-.132.138 2.508 2.391-.142.15-2.848-2.716a.445.445 0 0 0-.306-.122h-.012a.445.445 0 0 0-.296.766l2.704 2.58a.473.473 0 0 1 .148.333l.018.755a.333.333 0 0 1-.325.341l-1.354.033a.713.713 0 0 0-.662.491.356.356 0 0 0 .34.468h.009l3.946-.098.747-.018L24 21.53v-3.417l-1.734-1.022-2.854-3.01ZM6.608 22.447h.782l1.341-1.624.72-.2 3.803-1.057a.357.357 0 0 0 .197-.55.713.713 0 0 0-.777-.276l-1.304.363a.333.333 0 0 1-.41-.231l-.203-.728a.473.473 0 0 1 .044-.361l1.835-3.257a.445.445 0 0 0-.776-.437l-1.932 3.428-.18-.101 1.703-3.019-.167-.093a.422.422 0 0 0-.325-.04.427.427 0 0 0-.258.202l-1.492 2.646-.18-.101 1.293-2.294-.165-.093a.427.427 0 0 0-.584.163l-1.082 1.92-.18-.102.884-1.567-.166-.093a.43.43 0 0 0-.585.163l-2.087 3.735v3.353c0 .139.113.251.251.251Z" fill="#fff"/><path d="M6.358 18.403v-7.006h14.978c.25 0 .498.207.543.451l.986 5.347.408.24-1.043-5.651a.945.945 0 0 0-.894-.745H6.358V9.61c0-.137.114-.251.25-.251h16.784a.25.25 0 0 1 .25.25v8.045l.358.21V9.608A.61.61 0 0 0 23.392 9H6.608A.61.61 0 0 0 6 9.608v9.435l.121-.217.237-.423ZM23.642 21.567v.63a.25.25 0 0 1-.25.25H7.668l-.295.358h16.019a.61.61 0 0 0 .608-.609v-.416l-.11-.065-.248-.148Z" fill="#fff"/><path d="M13.502 19.126a.367.367 0 0 0-.051-.11.713.713 0 0 0-.777-.276l-1.304.363a.333.333 0 0 1-.41-.231l-.203-.728a.473.473 0 0 1 .044-.361l1.835-3.257a.445.445 0 0 0-.776-.437l-1.932 3.428-.18-.101 1.703-3.019-.167-.093a.422.422 0 0 0-.325-.04.427.427 0 0 0-.258.202l-1.492 2.646-.18-.101 1.293-2.294-.165-.093a.427.427 0 0 0-.584.163l-1.082 1.92-.18-.102.884-1.567-.166-.093a.43.43 0 0 0-.585.163l-2.087 3.735-.049.087-.308.553v2.713a.61.61 0 0 0 .608.608h.487l.295-.357 1.341-1.624.72-.2 3.803-1.057a.357.357 0 0 0 .248-.44Z" fill="#fff"/><path d="M15.133 12.5a.617.617 0 1 0-1.234 0 .617.617 0 0 0 1.234 0Z" fill="#EB0000"/></g><defs><clipPath id="a"><path fill="#fff" d="M0 0h30v30H0z"/></clipPath></defs></svg>
